img/stack-overflow.svg

<svg xmlns="http://www.w3.org/2000/svg" width="24" height="24" fill="none" viewBox="0 0 24 24">
  <path fill="#BCBBBB" d="M19.127 21.866v-6.43h2.134V24H2v-8.563h2.134v6.43h14.993Z"/>
  <path fill="#F48023" d="m6.49 14.827 10.475 2.19.444-2.107-10.476-2.19-.443 2.107Zm1.385-4.989 9.7 4.518.887-1.94-9.7-4.545-.887 1.967Zm2.688-4.766 8.231 6.845 1.358-1.635-8.23-6.846-1.359 1.636ZM15.884 0l-1.718 1.275 6.374 8.591 1.719-1.275L15.884 0ZM6.268 19.704h10.697V17.57H6.268v2.134Z"/>
</svg>

<svg width="24" height="24" viewBox="0 0 24 24" fill="none" xmlns="http://www.w3.org/2000/svg">
<path d="M19.127 15.436H21.261V24H2V15.437H4.134V21.867H19.127V15.436Z" fill="#BCBBBB"/>
<path d="M6.49 14.827L16.965 17.017L17.409 14.91L6.933 12.72L6.49 14.827ZM7.875 9.838L17.575 14.356L18.462 12.416L8.762 7.871L7.875 9.838ZM10.563 5.072L18.794 11.917L20.152 10.282L11.922 3.436L10.563 5.072ZM15.884 0L14.166 1.275L20.54 9.866L22.259 8.591L15.884 0ZM6.268 19.704H16.965V17.57H6.268V19.704Z" fill="#F48023"/>
</svg>
